X:190
T:High Rocks. THO5.190, The
M:6/8
L:1/8
B:Thompson's Complete Collection of 200 Favourite Dances Vol.5
F:https://www.libraryofdance.org/manuals/1780c-Thompson-Compleat-5.pdf
Z:vmp. Peter Dunk 2024
Q:3/8=100
K:F
faf bge|def gfe|fdf ece|dcB AGF|
faf bge|def gfe|fdf ege|fcA F3:|
|:AcA fcA|BdB GAB|AcA fcA|BdB G3|
AcA fcA|BdB AFA|gbg ege|fcA F3:|
W:
W:The 1st Lady set to the 2nd Gent & turn the 3rd Gent ./.
W:the 1st Gent set to the 2nd Lady & turn the 3rd Lady ./:
W:Set 3 & 3 top & bottom, the same sideways :/.
W:Hands six quite round :/:

